!!!OTL: 83. Friedrich der Grosse. / Aus Bruchweiler (Hochwald) 1883, u. anderen Gegenden des Rheinlandes.
!!!ODT: 1893
!!!ARE: Europa, Mitteleuropa, Deutschland, Rheinland
!!!SCT: B0083
!!!TXL: @@DE
!!!YEM: Copyright 1995, estate of Helmut Schaffrath.
**kern	**text
*ICvox	*
*Ivox	*
*M4/4	*
*met(c)	*
*clefG2	*
*k[f#]	*
*G:	*
{8d	Der
8d	klei-
8d	-ne
=1	=1
4.g	Mann
8g	im
8g	ſtaub-
8g	-be-
8g	-deck-
8b/	-ten
=2	=2
8bL	Klei-
8aJ	.
4a	-de
4r}	.
{8aL	mit
8bJ	.
=3	=3
4cc'	man-
4a'	-chem
4f#'	Ritʒ
4d'	und
=4	=4
4b	Schlitʒ,
4r	.
8r}	.
{8g	der
8g	gro-
8g	-ße
=5	=5
4.ee	Mann,
8ee	der
8ee	Preu-
8ee	-ßen
8gg	Stolʒ
8ee	und
=6	=6
8eeL	Freu-
8ddJ	.
4dd	-de,
4r}	.
{8bL	das
8ccJ	.
=7	=7
4dd	war
8gL	der
8aJ	.
4b/	al-
4a	-te
=8	=8
8dd}	Fritʒ,
{8g	das
8g	war
8a	der
4b/	al-
4a	-te
=9	=9
8dd	Fritʒ,
8g	das
8g	war
8a	der
4b	al-
4a	-te
=10	=10
4g	Fritʒ.
4r	.
8r}	.
==	==
!!!AGN: Helden -, Ehren -, Gedaechtnis -, Kriegs - Lied
!!!GTL: Helden- und Ehrengedächtnißlieder
!!!ONB: ESAC (Essen Associative Code) Database: BOEHME
!!!AMT: simple quadruple
!!!AIN: vox
!!!EED: Helmut Schaffrath
!!!EEV: 1.0
!!Aus Bruchweiler (Hochwald) 1883, u. anderen Gegenden des Rheinlandes.
!!Text: Gedicht von W. Ribbeck
!!!URL-scan: https://archive.org/details/BoehmeVtLieder1895/page/n93/mode/2up
!!!ENC: Anna Maria Matuszewska
!!!EEV: 2024/17/06
*-	*-
